svg/u1f58a.svg

<svg viewBox="0 0 128 128" xmlns="http://www.w3.org/2000/svg">
  <g>
    <path d="M11.83,121.98c5.36-2.78,13.09-8.23,23.31-16.66l-12.1-12c-8.33,10.12-13.78,17.85-16.56,23.31 C9.45,116.72,11.73,119.1,11.83,121.98z" fill="#BDBDBD"/>
    <path d="M4.88,123.56c0.79,0.79,2.58,0.5,5.26-0.79c0.5-0.2,1.09-0.5,1.59-0.79 c-0.1-2.88-2.38-5.26-5.36-5.36c-0.3,0.6-0.6,1.09-0.79,1.59C4.39,120.89,4.19,122.77,4.88,123.56z" fill="#616161"/>
    <path d="M11.91,113.51c-0.16,0.14-0.33,0.28-0.5,0.43c-0.31,0.26-0.68,0.54-1.08,0.44 c0.18-0.73,0.57-1.39,0.95-2.04c2.78-4.7,4.81-8.29,8.83-12.06c0.27-0.25,0.57-0.51,0.93-0.57c0.59-0.09,1.11,0.39,1.43,0.88 c0.33,0.5,0.86,1.45,0.77,2.08c-0.09,0.67-0.83,1.07-1.33,1.52C18.26,107.48,15.65,110.28,11.91,113.51z" fill="#EEEEEE"/>
    <g>
      <path d="M107.87,7.78c-1.01-0.89-2.8-2.52-2.8-2.52c-1.01-0.89-2.33-1.33-3.71-1.25 c-1.38,0.09-2.63,0.69-3.5,1.67c-3.99,3.9-7.99,7.8-11.98,11.7c-5.44,5.32-18.63,18.25-19.51,19.35 c-0.88,1.11-0.29,1.73-0.19,1.84c1.32,1.45,3.69,1.65,5.42,0.71c1.72-0.94,2.81-2.81,3.13-4.75c0.21-1.26,0.29-1.89,1.22-2.71 c0.34-0.3,19.29-17.99,22.19-21.29c0.48-0.55,1.92-1.7,3.5-0.49c0.25,0.19,5.73,4.81,5.73,4.81l3.49-3.96l-0.01-0.23 C110.83,10.39,110.83,10.39,107.87,7.78z" fill="#BDBDBD"/>
      <path d="M73.4,55l-7.64-7.64C34.62,78.91,23.67,91.02,20.98,94.49c-0.47,0.61-0.42,1.47,0.13,2.02 l10.87,10.48c0.55,0.55,1.41,0.6,2.02,0.13c3.47-2.69,15.6-13.23,47.14-44.37C81.04,62.64,73.4,55,73.4,55z" fill="#1565C0"/>
      <path d="M123.11,17l-0.1-0.1c1.19-2.58-0.4-5.56-3.18-8.24c-2.78-2.68-5.76-4.37-8.24-3.18l-0.1-0.1 c0,0-23.42,16.37-48.42,42.57c-0.69,0.79-0.69,1.98,0,2.68l14.88,14.88c0.69,0.69,1.89,0.79,2.68,0 C106.74,40.42,123.11,17,123.11,17z" fill="none"/>
      <path d="M104.91,10.47c-0.62-0.96-2.13-2.32-3.17-2.79c-1.19-0.53-2.07-0.01-2.83,0.66 c-1.34,1.18-10.25,10.43-12.2,12.86c-0.22,0.28-0.45,0.59-0.45,0.94c5.09-4.83,10.27-9.6,11.92-11.03 c1.26-1.09,2.48-2.06,3.47-1.07c0.1,0.1,0.79,0.65,2.04,1.7L104.91,10.47z" fill="#757575"/>
      <path d="M123.11,17c1.23-1.77-0.5-5.66-3.27-8.34c-2.78-2.68-6.57-4.54-8.34-3.27 c-1.76,1.27-23.42,16.37-48.42,42.57c-0.69,0.79-0.69,1.98,0,2.68l14.88,14.88c0.69,0.69,1.89,0.79,2.68,0 C106.74,40.42,121.89,18.77,123.11,17z" fill="#1565C0"/>
      <path d="M29.36,94.04c-1.11,0.87-4.4,2.43-1.87-1.53c0.6-0.93,2.63-3.44,3.49-4.45 c3.31-3.92,22.27-23.09,25.64-26.63c2.74-2.88,5.16-3.58,5.95-1.58c0.54,1.38-0.58,2.98-6.42,9.2 C51.29,74.21,35.11,89.49,29.36,94.04z" fill="#2196F3"/>
      <path d="M83.73,40.95c0,0-3.51,4.24-6.06,2.09c-2.02-1.71,2.66-5.76,2.66-5.76 c0.12-0.13,16.17-15.21,20.94-19.04c1.96-1.58,4.46-3.34,5.15-2.73c0.69,0.61-0.45,2.55-3.46,5.54 C99.94,24.04,83.84,40.83,83.73,40.95z" fill="#2196F3"/>
      <path d="M123.11,17l-0.1-0.1c1.19-2.58-0.4-5.56-3.18-8.24c-2.78-2.68-5.76-4.37-8.24-3.18l-0.1-0.1 c0,0-23.42,16.37-48.42,42.57c-0.69,0.79-0.69,1.98,0,2.68l14.88,14.88c0.69,0.69,1.89,0.79,2.68,0 C106.74,40.42,123.11,17,123.11,17z" fill="none"/>
    </g>
    <path d="M72.33,32.5c-0.78,0.51-0.47,2.84-0.95,4.03c-0.39,0.95-0.38,1.45,0.42,1.21 c0.85-0.26,1.8-1.54,1.8-3.53C73.59,33.24,73.14,31.96,72.33,32.5z" fill="#EEEEEE"/>
    <path d="M104.05,10.92l-0.9,0.7c2.1,1.29,4.75,3.28,7.48,6.01c1.21,1.21,2.88,3.14,3.46,4.31 c0.54,1.11,0.74,2.81,0.28,4.4c-0.5,1.73-1.29,2.51-1.61,4.27c1.59-1.97,4.8-6.08,4.8-6.08s-1.39-3.57-6.14-8.33 C106.67,11.44,104.05,10.92,104.05,10.92z" fill="#0D47A1"/>
    <path d="M119.84,8.66c-2.15-2.07-4.9-3.65-6.85-3.68c0,0,3.51,1.88,5.53,4.51c2.14,2.78,3.53,5.31,2.57,6.9 c-1.6,2.3-15.78,22.43-40.78,46.66c-0.44,0.42-1.15,0.35-1.48-0.16c-1.42-2.19-3.32-4.5-6.16-7.33c-4.06-4.06-6.68-5.89-9.73-7.43 c0,0-0.7,0.37-0.88,1.6c-0.12,0.79-0.05,1.43-0.05,1.43l0.86-0.79c2.39,1.34,5.3,3.5,8.4,6.61c1.33,1.33,2.53,2.67,3.57,3.96 c0.14,0.26,1.18,2.46-0.95,5.87c0,0-0.32,0.41-0.8,1.05c-25.03,24.55-36.67,35.02-38.96,36.58c-2.4,1.63-3.67,1.08-3.67,1.08 c0.3,0.3,0.96,1.04,1.7,1.62c0.75,0.59,1.56,0.19,1.83-0.03c2.9-2.25,11.84-9.97,33.07-30.58l0,0c0.03-0.03,0.06-0.05,0.08-0.08 c3.12-3.03,6.51-6.34,10.18-9.95c0.02,0,0.65,0.07,1.43-0.05c1.22-0.18,1.68-0.75,1.68-0.75c0,0,0,0,0-0.01 c0.07-0.05,0.14-0.11,0.21-0.17c26.1-25.1,41.24-46.75,42.47-48.52S122.62,11.34,119.84,8.66z" fill="#0D47A1"/>
    <path d="M77.08,51.17c-3.07-3.07-6.64-5.88-9.83-7.51c0,0-0.79-0.05-1.53,0.77c-0.56,0.62-0.69,1.5-0.69,1.5 c2.42,1.07,5.96,3.36,9.95,7.34c3,3,5.44,6.16,6.87,8.92c0.29,0.56,0.51,1.05,0.68,1.5c0,0,0.88,0.01,1.62-0.63 c0.83-0.73,0.66-1.61,0.66-1.61C83.23,58.14,80.3,54.39,77.08,51.17z" fill="#FFC107"/>
    <path d="M115.15,13.11c-2.07-2.07-4.37-4.01-6.62-5.56c0,0-1.54-0.59-2.95,0.71s-1.52,2.67-1.52,2.67 c2.1,1.29,4.61,3.21,7.34,5.94c2.55,2.55,4.69,5.23,6.16,7.67c0,0,1.56-0.12,2.66-1.43c1.1-1.31,0.71-3.05,0.71-3.05 C119.35,17.69,117.32,15.28,115.15,13.11z" fill="#BDBDBD"/>
    <path d="M107.19,8.77c-0.53,0.11-1.03,0.52-1.06,1.06c-0.03,0.55,0.41,0.99,0.82,1.36 c1.28,1.16,2.61,2.34,4.25,2.89c0.36,0.12,0.83,0.19,1.08-0.1c0.16-0.18,0.17-0.45,0.15-0.69c-0.08-0.99-0.58-1.9-1.23-2.65 C110.18,9.48,108.84,8.43,107.19,8.77z" fill="#EEEEEE"/>
  </g>
</svg>

<svg viewBox="0 0 128 128" xmlns="http://www.w3.org/2000/svg">
  <defs/>
  <path d="M11.83,121.98 C17.19,119.2 24.92,113.75 35.14,105.32 L23.04,93.32 C14.71,103.44 9.26,111.17 6.48,116.63 C9.45,116.72 11.73,119.1 11.83,121.98 Z" fill="#BDBDBD"/>
  <path d="M4.88,123.56 C5.67,124.35 7.46,124.06 10.14,122.77 C10.64,122.57 11.23,122.27 11.73,121.98 C11.63,119.1 9.35,116.72 6.37,116.62 C6.07,117.22 5.77,117.71 5.58,118.21 C4.39,120.89 4.19,122.77 4.88,123.56 Z" fill="#616161"/>
  <path d="M11.91,113.51 C11.75,113.65 11.58,113.79 11.41,113.94 C11.1,114.2 10.73,114.48 10.33,114.38 C10.51,113.65 10.9,112.99 11.28,112.34 C14.06,107.64 16.09,104.05 20.11,100.28 C20.38,100.03 20.68,99.77 21.04,99.71 C21.63,99.62 22.15,100.1 22.47,100.59 C22.8,101.09 23.33,102.04 23.24,102.67 C23.15,103.34 22.41,103.74 21.91,104.19 C18.26,107.48 15.65,110.28 11.91,113.51 Z" fill="#EEEEEE"/>
  <path d="M107.87,7.78 C106.86,6.89 105.07,5.26 105.07,5.26 C104.06,4.37 102.74,3.93 101.36,4.01 C99.98,4.1 98.73,4.7 97.86,5.68 C93.87,9.58 89.87,13.48 85.88,17.38 C80.44,22.7 67.25,35.63 66.37,36.73 C65.49,37.84 66.08,38.46 66.18,38.57 C67.5,40.02 69.87,40.22 71.6,39.28 C73.32,38.34 74.41,36.47 74.73,34.53 C74.94,33.27 75.02,32.64 75.95,31.82 C76.29,31.52 95.24,13.83 98.14,10.53 C98.62,9.98 100.06,8.83 101.64,10.04 C101.89,10.23 107.37,14.85 107.37,14.85 L110.86,10.89 L110.85,10.66 C110.83,10.39 110.83,10.39 107.87,7.78 Z" fill="#BDBDBD"/>
  <path d="M73.4,55 L65.76,47.36 C34.62,78.91 23.67,91.02 20.98,94.49 C20.51,95.1 20.56,95.96 21.11,96.51 L31.98,106.99 C32.53,107.54 33.39,107.59 34,107.12 C37.47,104.43 49.6,93.89 81.14,62.75 C81.04,62.64 73.4,55 73.4,55 Z" fill="#1565C0"/>
  <path d="M104.91,10.47 C104.29,9.51 102.78,8.15 101.74,7.68 C100.55,7.15 99.67,7.67 98.91,8.34 C97.57,9.52 88.66,18.77 86.71,21.2 C86.49,21.48 86.26,21.79 86.26,22.14 C91.35,17.31 96.53,12.54 98.18,11.11 C99.44,10.02 100.66,9.05 101.65,10.04 C101.75,10.14 102.44,10.69 103.69,11.74 L104.91,10.47 Z" fill="#757575"/>
  <path d="M123.11,17 C124.34,15.23 122.61,11.34 119.84,8.66 C117.06,5.98 113.27,4.12 111.5,5.39 C109.74,6.66 88.08,21.76 63.08,47.96 C62.39,48.75 62.39,49.94 63.08,50.64 L77.96,65.52 C78.65,66.21 79.85,66.31 80.64,65.52 C106.74,40.42 121.89,18.77 123.11,17 Z" fill="#1565C0"/>
  <path d="M29.36,94.04 C28.25,94.91 24.96,96.47 27.49,92.51 C28.09,91.58 30.12,89.07 30.98,88.06 C34.29,84.14 53.25,64.97 56.62,61.43 C59.36,58.55 61.78,57.85 62.57,59.85 C63.11,61.23 61.99,62.83 56.15,69.05 C51.29,74.21 35.11,89.49 29.36,94.04 Z" fill="#2196F3"/>
  <path d="M83.73,40.95 C83.73,40.95 80.22,45.19 77.67,43.04 C75.65,41.33 80.33,37.28 80.33,37.28 C80.45,37.15 96.5,22.07 101.27,18.24 C103.23,16.66 105.73,14.9 106.42,15.51 C107.11,16.12 105.97,18.06 102.96,21.05 C99.94,24.04 83.84,40.83 83.73,40.95 Z" fill="#2196F3"/>
  <path d="M72.33,32.5 C71.55,33.01 71.86,35.34 71.38,36.53 C70.99,37.48 71,37.98 71.8,37.74 C72.65,37.48 73.6,36.2 73.6,34.21 C73.59,33.24 73.14,31.96 72.33,32.5 Z" fill="#EEEEEE"/>
  <path d="M104.05,10.92 L103.15,11.62 C105.25,12.91 107.9,14.9 110.63,17.63 C111.84,18.84 113.51,20.77 114.09,21.94 C114.63,23.05 114.83,24.75 114.37,26.34 C113.87,28.07 113.08,28.85 112.76,30.61 C114.35,28.64 117.56,24.53 117.56,24.53 C117.56,24.53 116.17,20.96 111.42,16.2 C106.67,11.44 104.05,10.92 104.05,10.92 Z" fill="#0D47A1"/>
  <path d="M119.84,8.66 C117.69,6.59 114.94,5.01 112.99,4.98 C112.99,4.98 116.5,6.86 118.52,9.49 C120.66,12.27 122.05,14.8 121.09,16.39 C119.49,18.69 105.31,38.82 80.31,63.05 C79.87,63.47 79.16,63.4 78.83,62.89 C77.41,60.7 75.51,58.39 72.67,55.56 C68.61,51.5 65.99,49.67 62.94,48.13 C62.94,48.13 62.24,48.5 62.06,49.73 C61.94,50.52 62.01,51.16 62.01,51.16 L62.87,50.37 C65.26,51.71 68.17,53.87 71.27,56.98 C72.6,58.31 73.8,59.65 74.84,60.94 C74.98,61.2 76.02,63.4 73.89,66.81 C73.89,66.81 73.57,67.22 73.09,67.86 C48.06,92.41 36.42,102.88 34.13,104.44 C31.73,106.07 30.46,105.52 30.46,105.52 C30.76,105.82 31.42,106.56 32.16,107.14 C32.91,107.73 33.72,107.33 33.99,107.11 C36.89,104.86 45.83,97.14 67.06,76.53 L67.06,76.53 C67.09,76.5 67.12,76.48 67.14,76.45 C70.26,73.42 73.65,70.11 77.32,66.5 C77.34,66.5 77.97,66.57 78.75,66.45 C79.97,66.27 80.43,65.7 80.43,65.7 C80.43,65.7 80.43,65.7 80.43,65.69 C80.5,65.64 80.57,65.58 80.64,65.52 C106.74,40.42 121.88,18.77 123.11,17 C124.34,15.23 122.62,11.34 119.84,8.66 Z" fill="#0D47A1"/>
  <path d="M77.08,51.17 C74.01,48.1 70.44,45.29 67.25,43.66 C67.25,43.66 66.46,43.61 65.72,44.43 C65.16,45.05 65.03,45.93 65.03,45.93 C67.45,47 70.99,49.29 74.98,53.27 C77.98,56.27 80.42,59.43 81.85,62.19 C82.14,62.75 82.36,63.24 82.53,63.69 C82.53,63.69 83.41,63.7 84.15,63.06 C84.98,62.33 84.81,61.45 84.81,61.45 C83.23,58.14 80.3,54.39 77.08,51.17 Z" fill="#FFC107"/>
  <path d="M115.15,13.11 C113.08,11.04 110.78,9.1 108.53,7.55 C108.53,7.55 106.99,6.96 105.58,8.26 C104.17,9.56 104.06,10.93 104.06,10.93 C106.16,12.22 108.67,14.14 111.4,16.87 C113.95,19.42 116.09,22.1 117.56,24.54 C117.56,24.54 119.12,24.42 120.22,23.11 C121.32,21.8 120.93,20.06 120.93,20.06 C119.35,17.69 117.32,15.28 115.15,13.11 Z" fill="#BDBDBD"/>
  <path d="M107.19,8.77 C106.66,8.88 106.16,9.29 106.13,9.83 C106.1,10.38 106.54,10.82 106.95,11.19 C108.23,12.35 109.56,13.53 111.2,14.08 C111.56,14.2 112.03,14.27 112.28,13.98 C112.44,13.8 112.45,13.53 112.43,13.29 C112.35,12.3 111.85,11.39 111.2,10.64 C110.18,9.48 108.84,8.43 107.19,8.77 Z" fill="#EEEEEE"/>
</svg>
